X:1
T:Was krenckstu dich
T:Joachim a Burck
T:Source : Breitkopf & Härtel---Leipzig---R.Eitner---1898. First print : 20 Deutsche Liedlein zu 4 Stimmen---Erfurt---G.Baumann---1575. Editor ;  André Vierendeels (08/11/17). Notes : Original clefs : C1, C3, C4, F3 Editorial accidentals above the staff Text : Ludwig Helmbold (Christeliche Reimen)
T:Was krenckstu dich
T:©
T:©
T:©
T:©
T:©
T:©
T:©
T:©
T:©
C:Joachim a Burck
Z:©
%%score [ 1 [ 2 3 ] 4 ]
L:1/8
Q:1/4=112
M:2/2
K:F
V:1 treble nm="Soprano" snm="S"
V:2 treble-8 nm="Tenor 1" snm="T 1"
V:3 treble-8 nm="Tenor 2" snm="T 2"
V:4 bass nm="Bass" snm="B"
V:1
 z4 F4 | F4 C4 | F4 G4 | A4 G4 | F8 | z4 c4 | c2 A2 B2 G2- | G2 F4 E2 | F2 F2 A4- | A2 B2 c4- | %10
w: Was|krenck- stu|dich, was|schreck- stu|mich?|was|krenck- stu dich, was|_ schreck- stu|mich? mein ar-|* me Seel|
w: Des|A- dams|Fall, ging|ü- ber|all,|was|A- dams fall ging|_ ü- ber-|all, ver- der-|* bet ihn|
 c4 B4 | A6 GF | G4 G4 | F8 | z8 | z4 F4 | F4 C4 | F4 G4 | A4 G4 | F8 | z4 c4 | c2 A2 B2 G2- | %22
w: _ aus|Furcht _ _|_ der|Hell,||die|du ver-|dient mit|gro- sser|Sünd,|die|du ver- dient mit|
w: _ an|Fleisch _ _|_ und|Blut.||da|war kein|Kraft, die|et- was|schafft,|da|war kein Kraft, die|
 G2 F4 E2 | F2 F2 A4- | A2 B2 c4- | c4 B4 | A6 GF | G4 G4 | F8 | z8 | z4 F4 | c4 B2 _e2- | %32
w: _ gro- sser|Sünd Du meinst,|_ wer doch|_ recht|the- * *|* te|noch,||der|kem viel- leicht|
w: _ et- was|schafft, und ih-|* nen brecht|_ wie-|der _ _|_ zu|Recht;||doch|ward er nicht|
 e2 d4 c2- | c2 =B2 c2 c2 | c4 A4 | G4 A4 | F4 D4 | C8 | z8 | z4 C4 | F4 G4 | A8- | A8 | z8 | %44
w: _ ins Him-|* mel- reich, sonst|mü- sse-|stu zur|Hel- len|zu.||Lass|sol- chen|Wahn|_||
w: _ bald hin|_ ge richt, weil|er ohn|nam des|Wei- bes|sam.||weil|er ohn|nam|||
 z4 c4 | A6 GF | G4 G4 | F8 | z8 | z4 A4 | B4 A2 G2- | G2 G2 F4 | E4 E4 | F4 G2 A2- | A2 G2 A4 | %55
w: nimm|den _ _|_ Trost|an:||Es|se- hen Got-|* tes Au-|gen al-|lei- ne nach|_ dem Glau-|
w: des|Wei- * *|* bes|sam.||Es|se- hen Got-|* tes Au-|gen al-|lei- ne nach|_ dem Glau-|
 B4 z4 | d4 d4- | d4 d4 | e4 d4 | c2 G2 c4- | c2 =BA B4 | c8- | c8 | z4 B4 | B4 B4 | c4 c4 | d8 | %67
w: ben|auf Chri-|* sti|Blut ge-|grün- * *||det,|_|da-|durch ist|Gott ver-|sü-|
w: ben|auf Chri-|* sti|Blut ge-|grün- * *||det,|_|da-|durch ist|Gott ver-|sü-|
 G4 G4 | A4 =B4 | c4 d4 | c8- | c8 | c8 |] %73
w: net, uns|in den|Him- mel|nim-||met.|
w: net, uns|in den|Him- mel|nim-||met.|
V:2
"^2)""^1)" B4 B4 |"^1)" F4 A3 B | c2 d2 e4 | c2 f4 ed | c2 B2 A2 d2 | c2 d2 efge | f4 d4 | c4 z4 | %8
w: Was krenck-|stu dich, _|_ _ _|was schreck- * *|||* stu|mich?|
w: Der Zöll-|ner hauf _|_ _ _|wird gnom- * *|* * * men|auf, der Zöll- * * *|* ner|hauf|
 z2 c2 d4 | d4 e4 | e2 f4 f2 | e4 d4 | e4 d4 | d8 | z4 G4 | A4 A4 | F2 G2 A3 B | c2 d2 e4 | %18
w: mein ar-|me Seel|aus Furcht der|Hell, aus|Furcht der|Hell,|die|du ver|dient _ _ _|_ _ _|
w: wird gnom-|men auf,|bey wel- chem|nichts dann|Un- recht|ist,|ihr|Hertz das|rewt _ _ _|_ _ _|
 c2 f4 ed | c2 B2 A2 d2 | c2 d2 efge | f4 d4 | c4 z4 | z2 c2 d4 | d4 e4 | e2 f4 f2 | e4 d4 | d8- | %28
w: mit gro- * *|||* sser|Sünd.|Du meinst,|wer doch|recht the- te|noch, recht|the-|
w: und Chri- * *|||* sto|trawt;|die E-|bre- chrin,|die E- bre-|chrin spricht|er|
 d4 c4 | c8- | c8 | z2 f2 d2 g2 | g4 g2 g2- | g2 g2 e4- | e2 e2 f2 f2 | c2 G2 c2 c2 | d8 | z4 e4 | %38
w: * te|noch,|_|der kem viel-|leicht ins Him-|* mel- reich,|_ sonst mü- sse-|stu zur Hel- len|zu|Lass|
w: _ selbst|rein;|_|der Ma- gda-|len ist auch|_ ge- sehn,|_ Pe- tro zu|gleich, sein Güt ist|reich,|der|
 e4 f4 | c4 f4 | d6 e2 | f8 | z4 f4 | d6 cB | c8 | d2 e2 f4- | f2 ed e4 | d6 cB | c8 | z4 f4 | %50
w: sol- chen|Wahn, lass|sol- chen|Wahn,|nimm|den _ _|_|Trost _ _|_ _ _ _|an: _ _|_|Es|
w: Sche- chers|bit, der|Sche- chers|bit|Ge-|nad _ _|_|ent- * *||pfeht. _ _|_|Es|
 g4 f2 _e2- | e2 _e2 d4 | G4 c4 | c4 c2 f2- | f2 d2 d4 | d4 z4 | f8 | g4 g4 | g4 g4 | g4 g4- | %60
w: se- hen Got-|* tes Au-|gen al-|lei- ne nach|_ dem Glau-|ben|auf|Chri- sti|Blut ge-|grün- det,|
w: se- hen Got-|* tes Au-|gen al-|lei- ne nach|_ dem Glau-|ben|auf|Chri- sti|Blut ge-|grün- det,|
 g4 g4 | g4 g4 | a4 a4 | f8 | g8 | g8 | f4 f4- | f4 e4 | f2 a2 g4 | c4 z2 d2 | e2 e2 a4- | %71
w: _ da-|durch ist|Gott ver-|sü-||net,|uns in|_ den|Him- mel nim-|met, uns|in den Him-|
w: _ da|durch ist|Gott ver-|sü-||net,|uns in|_ den|Him- mel nim-|met, uns|in den Him-|
 a2 g2 g4 | a8 |] %73
w: * mel nim-|met.|
w: * mel nim-|met.|
V:3
"^3)" z8 |"^1)" z4 F4 | F4 C4 | F4 G4 | A2 B2 c2 B2 | A4 G4 | A4 z2 B2 | c4 B4 | A4 D4 | F4 G4 | %10
w: |Was|krenck- stu|dich, was|schrenck- * * *|* stu|mich? was|kenck- stu|dich, was|schreck- stu|
 A4 d4 | c4 F4 | c4 B4 | B4 A2 G2 | A2 d4 c2 | d8 | z4 F4 | F4 C4 | F4 G4 | A2 B2 c2 B2 | A4 G4 | %21
w: mich? mein|ar- me|Seel aus|Furcht _ _|_ _ der|Hell,|die|du ver-|dient mit|gro- * * *|* sser|
 A4 z2 B2 | c4 B4 | A4 D4 | F4 G4 | A4 d4 | c4 A4 | B4 B4 | A6 GF | G4 G4 | A4 z2 c2 | A4 B2 c2- | %32
w: Sünd, die|du ver-|gient mit|gro- sser|Sünd. Du|meinst, wer|doch recht|the- * *|* te|noch, der|kem viel- leicht|
 c2 d2 _e4 | d4 c4- | c2 c2 c2 c2 | c4 A4 | BA A4 G2 | A4 z2 c2 | c4 A4 | A6 A2 | B3 A G2 G2 | %41
w: _ ins Him-|mel- reich,|_ sonst mü- sse-|stu zur|Hel- * * len|zu. Lass|sol- chen|Wahn, lass|sol- * * chen|
 F8- | F8 | z4 B4- | B4 A4 | d8 | c4 c4 | A6 GF | G4 G4 | A4 d4 | d4 d2 B2 | G2 c3 B B2 | c4 G4 | %53
w: Wahn,|_|nimm|_ den|Trost|an, nimm|den _ _|_ Trost|an: es|se- hen Got-|tes Au- * *|gen al-|
 A4 G2 d2- | d2 B2 A4 | G4 z4 | A8 | B4 B4 | c4 d4 | _e8 | d8 | z4 e4 | e4 f4 | d8 | d4 _e4- | %65
w: lei- ne nach|_ dem Glau-|ben|auf|Chri- sti|Blut ge-|grün-|det,|da-|durch ist|Gott|ver- sü-|
 e2 d2 c4- | c2 BA B4 | c8 | z2 d4 e2- | e2 f4 g2- | g2 e4 f2- | f2 ed e4 | f8 |] %73
w: ||net,|uns in|_ den Him-|* mel nim-||met.|
V:4
 z8 | z8 | z8 | z8 |"^1)" z4 F,4 | F,4 C,4 | F,4 G,4 | A,4 G,4 | F,6 F,2 | D,4 C,2 B,,2 | %10
w: ||||Was|krenck- stu|dich, was|schreck- stu|mich? mein|ar- * *|
 A,,4 B,,4 | C,4 D,4 | C,2 B,,2 G,,2 A,,2 | B,,2 C,2 D,2 E,2 | F,4 _E,4 | D,8 | z8 | z8 | z8 | %19
w: * me|Seel aus|Furcht _ _ _|_ _ _ _|* der|Hell,||||
 z4 F,4 | F,4 C,4 | F,4 G,4 | A,4 G,4 | F,6 F,2 | D,4 C,2 B,,2 | A,,4 B,,4 | C,4 D,4 | %27
w: die|du ver-|dient mit|gro- sser|Sûnd. Du|meinst _ _|_ wer|doch recht|
 G,,2 A,,2 B,,2 C,2 | D,2 E,2 F,4- | F,4 E,4 | F,6 F,2 | F,4 G,2 C,2- | C,2 =B,,2 C,2 C,2 | %33
w: the- * * *||* te|noch, der|kem viel- leicht|_ ins Him- mel-|
 G,4 z2 A,2 | A,4 F,4 | E,4 F,4 | D,4 B,,4 | A,,6 A,,2 | C,4 D,4 | F,8 | z8 | z4 C4 | A,6 G,F, | %43
w: reich, sonst|mü- sse-|stu zur|Hel- len|zu. Lass|sol- chen|Wahn,||nimm|den _ _|
 G,4 G,4 | F,8 | z8 | z4 C,4 | D,4 F,4- | F,2 E,D, E,4 | F,4 D,4 | G,4 D,2 _E,2- | E,2 C,2 D,4 | %52
w: _ Trost|an,||nimm|den Trost-||an: es|se- hen Got-|* tes Au-|
 C,4 C,4 | F,4 E,2 D,2 | D,2 G,3 ^F, F,2 | G,4 z4 | D,8 | G,4 G,4 | C,4 =B,,4 | C,8 | G,4 G,4 | %61
w: gen al-|lei- ne nach|dem Glau- * *|ben|auf|Chri- sti|Blut ge-|grun-|det, da-|
 C4 C4 | A,4 F,4 | B,6 A,2 | G,2 F,2 _E,2 D,2 |"^b" C,2 D,2 E,4 | D,8 | z4 C,4 | F,4 G,4 | %69
w: durch ist|Gott ver-|sü- *|||net,|uns|in den|
 A,4 B,4 | C3 B, A,2 G,F, | C8 | F,8 |] %73
w: Him- mel|nim- * * * *||met/|

